app/images/dist/intro-auto/intro__auto-2.svg

<svg width="1440" height="810" fill="none" xmlns="http://www.w3.org/2000/svg"><path d="M428.878 587.157a1.337 1.337 0 00-1.633-.943 1.338 1.338 0 00-.943 1.633c.19.708.925 1.133 1.633.943a1.337 1.337 0 00.943-1.633zm2.416 9.015a1.338 1.338 0 00-1.633-.943 1.337 1.337 0 00-.943 1.633c.19.709.925 1.133 1.633.943a1.339 1.339 0 00.943-1.633zm-1.208-4.508a1.337 1.337 0 00-1.633-.942 1.337 1.337 0 00-.943 1.633c.19.708.925 1.132 1.633.942a1.337 1.337 0 00.943-1.633zm-2.127 17.183c-.205-.767-.236-1.459-.093-2.077a4.387 4.387 0 01.848-1.706l.928.65c-.353.452-.592.912-.717 1.381-.117.466-.102.974.046 1.524.181.676.481 1.147.899 1.411.422.274.903.338 1.444.193.45-.121.761-.349.932-.684.171-.336.245-.834.223-1.495l-.031-.818c-.033-.919.087-1.661.36-2.227.285-.559.793-.937 1.523-1.133a2.661 2.661 0 011.17-.067c.366.066.693.206.982.418.291.222.542.507.751.857.221.356.393.764.517 1.224.191.712.223 1.356.097 1.931a3.635 3.635 0 01-.802 1.606l-.85-.685c.29-.358.49-.75.598-1.175.108-.425.089-.913-.059-1.463-.161-.604-.42-1.047-.776-1.328-.344-.275-.773-.344-1.287-.206-.451.121-.755.357-.912.708-.145.358-.206.852-.182 1.484l.031.818c.041.984-.094 1.74-.407 2.268-.312.528-.82.887-1.524 1.075a2.998 2.998 0 01-1.238.085 2.428 2.428 0 01-1.062-.396 3.066 3.066 0 01-.844-.876 4.332 4.332 0 01-.565-1.297zm11.572 2.509l.29 1.082-4.165 1.116.014.054a2.4 2.4 0 011.139.463c.319.253.548.64.688 1.163.194.721.111 1.352-.246 1.893-.347.547-.943.933-1.791 1.161l-4.476 1.199-.29-1.082 4.287-1.149c1.253-.335 1.738-1.031 1.456-2.085a2.577 2.577 0 00-.252-.614 1.886 1.886 0 00-.388-.476 1.312 1.312 0 00-.524-.28 1.223 1.223 0 00-.618.021l-4.841 1.297-.29-1.082 10.007-2.681zm-7.367 13.183a3.258 3.258 0 01-.088-1.354c.068-.433.222-.832.463-1.196.252-.358.578-.672.979-.944a4.825 4.825 0 011.453-.635 4.798 4.798 0 011.562-.173c.492.033.932.142 1.32.328.399.192.737.46 1.012.801.275.342.475.747.601 1.216s.154.916.084 1.34a2.896 2.896 0 01-.476 1.2 3.451 3.451 0 01-.975.957c-.41.274-.89.485-1.44.632a4.83 4.83 0 01-1.576.176 3.607 3.607 0 01-1.323-.341 2.965 2.965 0 01-.999-.805 3.143 3.143 0 01-.597-1.202zm.96-.257c.157.586.465 1.015.925 1.288.459.273 1.059.31 1.798.112l1.001-.268c.739-.198 1.24-.53 1.501-.996.262-.467.314-.993.157-1.579s-.465-1.015-.925-1.288c-.46-.273-1.059-.311-1.798-.113l-1.001.269c-.739.198-1.24.53-1.501.996-.262.466-.314.993-.157 1.579zm7.324 2.613l.282 1.054-2.816 1.552-2.857 1.563.007.027 3.285.033 3.251.071.257.96-2.773 1.714-2.824 1.684.007.028 3.249-.103 3.218-.05.272 1.014-7.474.017-.359-1.339 3.093-1.872 1.96-1.178-.008-.027-2.282-.026-3.615-.075-.351-1.312 6.478-3.735zm-3.072 16.446l6.977-1.87.29 1.082-1.136.304.015.054c.202.033.393.079.573.137.191.064.365.153.52.266.159.122.296.274.412.455.125.179.224.404.297.674.123.46.124.914.002 1.362-.112.446-.396.831-.85 1.155l.008.027c.412.025.804.171 1.175.439.383.274.654.709.813 1.304.191.712.105 1.329-.257 1.852-.351.529-.95.907-1.798 1.134l-4.476 1.199-.29-1.082 4.287-1.148c.622-.167 1.058-.414 1.308-.742.251-.328.305-.758.162-1.29a2.384 2.384 0 00-.248-.6 1.73 1.73 0 00-.381-.449 1.21 1.21 0 00-.517-.253 1.213 1.213 0 00-.618.021l-4.841 1.297-.29-1.082 4.287-1.149c.622-.166 1.058-.414 1.309-.742.25-.328.306-.748.169-1.262a2.445 2.445 0 00-.248-.601 1.734 1.734 0 00-.385-.462 1.35 1.35 0 00-.521-.266 1.219 1.219 0 00-.617.02l-4.842 1.298-.289-1.082zm3.744 14.622a3.258 3.258 0 01-.088-1.354c.068-.433.222-.832.462-1.196.252-.358.579-.672.98-.944a4.85 4.85 0 011.453-.636 4.82 4.82 0 011.562-.172c.492.033.932.142 1.32.328a2.89 2.89 0 011.012.801c.275.342.475.747.601 1.216s.154.915.084 1.34a2.896 2.896 0 01-.476 1.2 3.451 3.451 0 01-.975.957c-.41.274-.89.485-1.44.632a4.83 4.83 0 01-1.576.176 3.607 3.607 0 01-1.323-.341 2.965 2.965 0 01-.999-.805 3.15 3.15 0 01-.597-1.202zm.96-.258c.157.586.465 1.016.925 1.289.459.273 1.059.31 1.798.112l1.001-.268c.739-.198 1.239-.53 1.501-.996.262-.467.314-.993.157-1.579s-.465-1.015-.925-1.288c-.46-.273-1.059-.311-1.798-.113l-1.001.269c-.739.198-1.24.53-1.501.996-.262.466-.314.992-.157 1.578zm.559 5.279l6.978-1.869.29 1.082-1.285.344.018.067c.368.037.726.183 1.074.437.348.255.599.666.751 1.234l.112.419-1.082.29-.17-.635c-.157-.586-.393-1.016-.708-1.289-.303-.267-.621-.355-.955-.266l-4.733 1.268-.29-1.082zm1.89 7.702a3.28 3.28 0 01-.091-1.367c.07-.425.225-.819.466-1.183.252-.357.578-.672.979-.943a5.133 5.133 0 011.456-.623 5.075 5.075 0 011.559-.185c.492.032.932.141 1.32.327.4.193.736.455 1.008.788.276.342.477.752.605 1.229.126.469.153.911.08 1.327a2.84 2.84 0 01-.463 1.139c-.227.341-.53.634-.909.881a4.29 4.29 0 01-1.308.582l-.513.138-1.345-5.017-.324.087c-.298.08-.565.199-.802.36a2.201 2.201 0 00-.554.583 2.015 2.015 0 00-.273.769 2.36 2.36 0 00.074.922c.118.442.324.797.619 1.066.296.278.663.455 1.099.532l-.348.919a2.821 2.821 0 01-1.446-.743c-.416-.4-.713-.93-.889-1.588zm6.396-1.714a2.064 2.064 0 00-.379-.768 1.87 1.87 0 00-.604-.519 2.17 2.17 0 00-.784-.225 2.374 2.374 0 00-.879.076l-.094.025 1.032 3.854.149-.039c.622-.167 1.072-.471 1.35-.913.289-.435.359-.932.209-1.491z" fill="#fff"/><g clip-path="url(#clip0)"><path d="M454.336 580.774l5.196 3-3 5.197a6.003 6.003 0 01-5.979 2.948 6.001 6.001 0 113.783-11.145zm3.375 3.488l-4.041-2.333a4.646 4.646 0 00-3.542-.466l2.416 9.015a4.657 4.657 0 002.834-2.174l2.333-4.042z" fill="#fff"/></g><path d="M456.638 600.756c.172.64.444 1.079.817 1.318.384.244.807.305 1.266.182l.095-.025c.496-.133.823-.39.982-.771.17-.374.188-.813.053-1.318-.131-.487-.345-.855-.644-1.103a2.476 2.476 0 00-1.055-.529l.425-1.013c.22.067.443.157.667.271.235.121.455.274.659.461.205.187.392.417.562.69.17.273.306.599.407.978.106.397.153.785.139 1.166a2.558 2.558 0 01-.217 1.029 2.11 2.11 0 01-.581.808c-.257.233-.574.4-.953.502a2.248 2.248 0 01-.865.072 2.026 2.026 0 01-.737-.208 2.334 2.334 0 01-.615-.459 2.761 2.761 0 01-.473-.627l-.054.015c.014.267-.011.534-.074.802a2.135 2.135 0 01-.303.763 2.08 2.08 0 01-.584.634c-.239.19-.534.332-.886.426a2.8 2.8 0 01-1.184.071 2.634 2.634 0 01-1.039-.417 3.24 3.24 0 01-.827-.866 4.19 4.19 0 01-.554-1.257 4.097 4.097 0 01-.155-1.118c.006-.34.053-.652.141-.936a3.8 3.8 0 01.34-.787c.141-.231.296-.447.464-.646l.878.678c-.158.167-.296.34-.413.516a2.366 2.366 0 00-.366 1.229c.004.23.044.49.122.779.178.667.462 1.132.852 1.395.398.26.877.315 1.436.166l.108-.029c.559-.15.941-.436 1.147-.858.214-.425.232-.971.054-1.638l-.297-1.109.987-.265.275 1.028zm-2.242 13.379l-1.659-6.194 1.163-.311 3.666 2.322a7.195 7.195 0 001.582.765c.539.174 1.039.199 1.499.076l.162-.043c.523-.14.908-.398 1.155-.774.247-.375.292-.856.135-1.442a2.219 2.219 0 00-.324-.724 1.856 1.856 0 00-.491-.478 2.122 2.122 0 00-.618-.254 3.287 3.287 0 00-.688-.077l.121-1.119c.303.015.606.064.909.147.314.09.606.224.876.403.273.188.517.432.732.732.218.308.389.693.512 1.153.123.459.166.888.127 1.284-.039.397-.147.75-.325 1.059-.178.308-.417.57-.717.786a3.024 3.024 0 01-1.055.5 3.247 3.247 0 01-1.071.113 4.034 4.034 0 01-1.018-.176 5.671 5.671 0 01-1.003-.442 14.61 14.61 0 01-1.032-.607l-2.967-1.93 1.33 4.963-1.001.268zm1.203 5.136c-.302-1.127-.095-2.066.621-2.819.719-.743 1.849-1.321 3.391-1.735 1.542-.413 2.809-.477 3.804-.193.996.294 1.645 1.004 1.947 2.131.302 1.127.094 2.062-.625 2.805-.716.753-1.845 1.335-3.387 1.749-1.541.413-2.811.472-3.807.179-.994-.284-1.642-.99-1.944-2.117zm.987-.264c.099.369.26.664.483.885.224.22.497.374.82.461.323.088.683.117 1.081.087.401-.02.831-.092 1.291-.215l1.541-.413c.46-.123.868-.276 1.225-.459.359-.173.657-.379.893-.616s.396-.507.479-.809c.083-.303.075-.639-.024-1.009-.099-.369-.26-.664-.483-.885a1.824 1.824 0 00-.82-.461 3.463 3.463 0 00-1.085-.101c-.398.03-.827.106-1.286.229l-1.542.413c-.46.123-.869.272-1.229.445a3.485 3.485 0 00-.889.63 1.819 1.819 0 00-.479.809c-.083.303-.075.639.024 1.009zm1.526 8.996l9.439-2.529.305 1.136-8.438 2.261 1.076 4.016-1.001.268-1.381-5.152z" fill="#fff"/><defs><clipPath id="clip0"><path fill="#fff" transform="rotate(75 -146.51 586.202)" d="M0 0h16v16H0z"/></clipPath></defs></svg>

<svg width="1440" height="810" viewBox="0 0 1440 810" fill="none" xmlns="http://www.w3.org/2000/svg">
<path d="M428.878 587.157C428.688 586.448 427.953 586.024 427.245 586.214C426.537 586.404 426.112 587.139 426.302 587.847C426.492 588.555 427.227 588.98 427.935 588.79C428.644 588.6 429.068 587.865 428.878 587.157ZM431.294 596.172C431.104 595.464 430.369 595.039 429.661 595.229C428.952 595.419 428.528 596.154 428.718 596.862C428.908 597.571 429.643 597.995 430.351 597.805C431.059 597.615 431.483 596.88 431.294 596.172ZM430.086 591.664C429.896 590.956 429.161 590.532 428.453 590.722C427.745 590.911 427.32 591.646 427.51 592.355C427.7 593.063 428.435 593.487 429.143 593.297C429.851 593.108 430.276 592.373 430.086 591.664Z" fill="white"/>
<path d="M427.959 608.847C427.754 608.08 427.723 607.388 427.866 606.77C428.019 606.149 428.301 605.581 428.714 605.064L429.642 605.714C429.289 606.166 429.05 606.626 428.925 607.095C428.808 607.561 428.823 608.069 428.971 608.619C429.152 609.295 429.452 609.766 429.87 610.03C430.292 610.304 430.773 610.368 431.314 610.223C431.764 610.102 432.075 609.874 432.246 609.539C432.417 609.203 432.491 608.705 432.469 608.044L432.438 607.226C432.405 606.307 432.525 605.565 432.798 604.999C433.083 604.44 433.591 604.062 434.321 603.866C434.735 603.755 435.126 603.733 435.491 603.799C435.857 603.865 436.184 604.005 436.473 604.217C436.764 604.439 437.015 604.724 437.224 605.074C437.445 605.43 437.617 605.838 437.741 606.298C437.932 607.01 437.964 607.654 437.838 608.229C437.714 608.813 437.447 609.348 437.036 609.835L436.186 609.15C436.476 608.792 436.676 608.4 436.784 607.975C436.892 607.55 436.873 607.062 436.725 606.512C436.564 605.908 436.305 605.465 435.949 605.184C435.605 604.909 435.176 604.84 434.662 604.978C434.211 605.099 433.907 605.335 433.75 605.686C433.605 606.044 433.544 606.538 433.568 607.17L433.599 607.988C433.64 608.972 433.505 609.728 433.192 610.256C432.88 610.784 432.372 611.143 431.668 611.331C431.236 611.447 430.823 611.476 430.43 611.416C430.04 611.366 429.686 611.234 429.368 611.02C429.049 610.806 428.768 610.514 428.524 610.144C428.283 609.784 428.094 609.351 427.959 608.847ZM439.531 611.356L439.821 612.438L435.656 613.554L435.67 613.608C436.113 613.673 436.492 613.827 436.809 614.071C437.128 614.324 437.357 614.711 437.497 615.234C437.691 615.955 437.608 616.586 437.251 617.127C436.904 617.674 436.308 618.06 435.46 618.288L430.984 619.487L430.694 618.405L434.981 617.256C436.234 616.921 436.719 616.225 436.437 615.171C436.379 614.954 436.295 614.75 436.185 614.557C436.078 614.373 435.949 614.214 435.797 614.081C435.645 613.948 435.47 613.855 435.273 613.801C435.086 613.755 434.88 613.761 434.655 613.822L429.814 615.119L429.524 614.037L439.531 611.356ZM432.164 624.539C432.038 624.07 432.009 623.619 432.076 623.185C432.144 622.752 432.298 622.353 432.539 621.989C432.791 621.631 433.117 621.317 433.518 621.045C433.927 620.771 434.412 620.559 434.971 620.41C435.521 620.262 436.041 620.205 436.533 620.237C437.025 620.27 437.465 620.379 437.853 620.565C438.252 620.757 438.59 621.025 438.865 621.366C439.14 621.708 439.34 622.113 439.466 622.582C439.592 623.051 439.62 623.498 439.55 623.922C439.482 624.356 439.324 624.756 439.074 625.122C438.833 625.486 438.508 625.805 438.099 626.079C437.689 626.353 437.209 626.564 436.659 626.711C436.1 626.861 435.575 626.92 435.083 626.887C434.6 626.852 434.159 626.739 433.76 626.546C433.369 626.351 433.036 626.083 432.761 625.741C432.488 625.408 432.289 625.008 432.164 624.539ZM433.124 624.282C433.281 624.868 433.589 625.297 434.049 625.57C434.508 625.843 435.108 625.88 435.847 625.682L436.848 625.414C437.587 625.216 438.088 624.884 438.349 624.418C438.611 623.951 438.663 623.425 438.506 622.839C438.349 622.253 438.041 621.824 437.581 621.551C437.121 621.278 436.522 621.24 435.783 621.438L434.782 621.707C434.043 621.905 433.542 622.237 433.281 622.703C433.019 623.169 432.967 623.696 433.124 624.282ZM440.448 626.895L440.73 627.949L437.914 629.501L435.057 631.064L435.064 631.091L438.349 631.124L441.6 631.195L441.857 632.155L439.084 633.869L436.26 635.553L436.267 635.581L439.516 635.478L442.734 635.428L443.006 636.442L435.532 636.459L435.173 635.12L438.266 633.248L440.226 632.07L440.218 632.043L437.936 632.017L434.321 631.942L433.97 630.63L440.448 626.895ZM437.376 643.341L444.353 641.471L444.643 642.553L443.507 642.857L443.522 642.911C443.724 642.944 443.915 642.99 444.095 643.048C444.286 643.112 444.46 643.201 444.615 643.314C444.774 643.436 444.911 643.588 445.027 643.769C445.152 643.948 445.251 644.173 445.324 644.443C445.447 644.903 445.448 645.357 445.326 645.805C445.214 646.251 444.93 646.636 444.476 646.96L444.484 646.987C444.896 647.012 445.288 647.158 445.659 647.426C446.042 647.7 446.313 648.135 446.472 648.73C446.663 649.442 446.577 650.059 446.215 650.582C445.864 651.111 445.265 651.489 444.417 651.716L439.941 652.915L439.651 651.833L443.938 650.685C444.56 650.518 444.996 650.271 445.246 649.943C445.497 649.615 445.551 649.185 445.408 648.653C445.35 648.436 445.268 648.236 445.16 648.053C445.056 647.878 444.928 647.728 444.779 647.604C444.63 647.48 444.458 647.395 444.262 647.351C444.076 647.304 443.87 647.311 443.644 647.372L438.803 648.669L438.513 647.587L442.8 646.438C443.422 646.272 443.858 646.024 444.109 645.696C444.359 645.368 444.415 644.948 444.278 644.434C444.22 644.217 444.137 644.017 444.03 643.833C443.923 643.65 443.794 643.495 443.645 643.371C443.496 643.247 443.322 643.158 443.124 643.105C442.938 643.058 442.732 643.065 442.507 643.125L437.665 644.423L437.376 643.341ZM441.12 657.963C440.994 657.494 440.965 657.043 441.032 656.609C441.1 656.176 441.254 655.777 441.494 655.413C441.746 655.055 442.073 654.741 442.474 654.469C442.883 654.195 443.368 653.983 443.927 653.833C444.476 653.686 444.997 653.629 445.489 653.661C445.981 653.694 446.421 653.803 446.809 653.989C447.208 654.181 447.546 654.448 447.821 654.79C448.096 655.132 448.296 655.537 448.422 656.006C448.548 656.475 448.576 656.921 448.506 657.346C448.438 657.78 448.28 658.18 448.03 658.546C447.789 658.91 447.464 659.229 447.055 659.503C446.645 659.777 446.165 659.988 445.615 660.135C445.056 660.285 444.531 660.344 444.039 660.311C443.556 660.276 443.115 660.163 442.716 659.97C442.325 659.775 441.992 659.507 441.717 659.165C441.444 658.832 441.245 658.431 441.12 657.963ZM442.08 657.705C442.237 658.291 442.545 658.721 443.005 658.994C443.464 659.267 444.064 659.304 444.803 659.106L445.804 658.838C446.543 658.64 447.043 658.308 447.305 657.842C447.567 657.375 447.619 656.849 447.462 656.263C447.305 655.677 446.997 655.248 446.537 654.975C446.077 654.702 445.478 654.664 444.739 654.862L443.738 655.131C442.999 655.329 442.498 655.661 442.237 656.127C441.975 656.593 441.923 657.119 442.08 657.705ZM442.639 662.984L449.617 661.115L449.907 662.197L448.622 662.541L448.64 662.608C449.008 662.645 449.366 662.791 449.714 663.045C450.062 663.3 450.313 663.711 450.465 664.279L450.577 664.698L449.495 664.988L449.325 664.353C449.168 663.767 448.932 663.337 448.617 663.064C448.314 662.797 447.996 662.709 447.662 662.798L442.929 664.066L442.639 662.984ZM444.529 670.686C444.401 670.208 444.37 669.753 444.438 669.319C444.508 668.894 444.663 668.5 444.904 668.136C445.156 667.779 445.482 667.464 445.883 667.193C446.295 666.928 446.78 666.72 447.339 666.57C447.889 666.423 448.409 666.361 448.898 666.385C449.39 666.417 449.83 666.526 450.218 666.712C450.618 666.905 450.954 667.167 451.226 667.5C451.502 667.842 451.703 668.252 451.831 668.729C451.957 669.198 451.984 669.64 451.911 670.056C451.839 670.471 451.685 670.851 451.448 671.195C451.221 671.536 450.918 671.829 450.539 672.076C450.163 672.331 449.727 672.525 449.231 672.658L448.718 672.796L447.373 667.779L447.049 667.866C446.751 667.946 446.484 668.065 446.247 668.226C446.021 668.392 445.836 668.587 445.693 668.809C445.552 669.04 445.461 669.296 445.42 669.578C445.382 669.868 445.407 670.176 445.494 670.5C445.612 670.942 445.818 671.297 446.113 671.566C446.409 671.844 446.776 672.021 447.212 672.098L446.864 673.017C446.326 672.92 445.844 672.672 445.418 672.274C445.002 671.874 444.705 671.344 444.529 670.686ZM450.925 668.972C450.845 668.675 450.719 668.419 450.546 668.204C450.381 667.987 450.18 667.814 449.942 667.685C449.707 667.564 449.446 667.489 449.158 667.46C448.879 667.429 448.586 667.454 448.279 667.536L448.185 667.561L449.217 671.415L449.366 671.376C449.988 671.209 450.438 670.905 450.716 670.463C451.005 670.028 451.075 669.531 450.925 668.972Z" fill="white"/>
<g clip-path="url(#clip0)">
<path d="M454.336 580.774L459.532 583.774L456.532 588.971C455.939 589.998 455.054 590.827 453.99 591.352C452.926 591.877 451.73 592.074 450.553 591.919C449.377 591.764 448.272 591.264 447.38 590.482C446.488 589.699 445.848 588.67 445.541 587.523C445.234 586.377 445.273 585.166 445.655 584.042C446.036 582.918 446.742 581.933 447.684 581.21C448.625 580.488 449.76 580.061 450.944 579.983C452.128 579.906 453.309 580.181 454.336 580.774ZM457.711 584.262L453.67 581.929C453.139 581.622 452.553 581.422 451.946 581.342C451.338 581.262 450.72 581.303 450.128 581.463L452.544 590.478C453.136 590.32 453.692 590.047 454.178 589.674C454.664 589.301 455.072 588.835 455.378 588.304L457.711 584.262L457.711 584.262Z" fill="white"/>
</g>
<path d="M456.638 600.756C456.81 601.396 457.082 601.835 457.455 602.074C457.839 602.318 458.262 602.379 458.721 602.256L458.816 602.231C459.312 602.098 459.639 601.841 459.798 601.46C459.968 601.086 459.986 600.647 459.851 600.142C459.72 599.655 459.506 599.287 459.207 599.039C458.918 598.788 458.566 598.611 458.152 598.51L458.577 597.497C458.797 597.564 459.02 597.654 459.244 597.768C459.479 597.889 459.699 598.042 459.903 598.229C460.108 598.416 460.295 598.646 460.465 598.919C460.635 599.192 460.771 599.518 460.872 599.897C460.978 600.294 461.025 600.682 461.011 601.063C461.006 601.441 460.933 601.784 460.794 602.092C460.665 602.407 460.472 602.676 460.213 602.9C459.956 603.133 459.639 603.3 459.26 603.402C458.954 603.484 458.665 603.508 458.395 603.474C458.128 603.449 457.882 603.38 457.658 603.266C457.435 603.152 457.229 602.999 457.043 602.807C456.859 602.625 456.701 602.416 456.57 602.18L456.516 602.195C456.53 602.462 456.505 602.729 456.442 602.997C456.39 603.272 456.289 603.526 456.139 603.76C456 604 455.805 604.211 455.555 604.394C455.316 604.584 455.021 604.726 454.669 604.82C454.263 604.929 453.869 604.953 453.485 604.891C453.11 604.827 452.764 604.688 452.446 604.474C452.136 604.257 451.861 603.969 451.619 603.608C451.378 603.248 451.193 602.829 451.065 602.351C450.956 601.945 450.905 601.573 450.91 601.233C450.916 600.893 450.963 600.581 451.051 600.297C451.139 600.012 451.252 599.75 451.391 599.51C451.532 599.279 451.687 599.063 451.855 598.864L452.733 599.542C452.575 599.709 452.437 599.882 452.32 600.058C452.206 600.243 452.117 600.436 452.055 600.636C451.993 600.837 451.959 601.053 451.954 601.287C451.958 601.517 451.998 601.777 452.076 602.066C452.254 602.733 452.538 603.198 452.928 603.461C453.326 603.721 453.805 603.776 454.364 603.627L454.472 603.598C455.031 603.448 455.413 603.162 455.619 602.74C455.833 602.315 455.851 601.769 455.673 601.102L455.376 599.993L456.363 599.728L456.638 600.756ZM454.396 614.135L452.737 607.941L453.9 607.63L457.566 609.952C458.09 610.285 458.617 610.54 459.148 610.717C459.687 610.891 460.187 610.916 460.647 610.793L460.809 610.75C461.332 610.61 461.717 610.352 461.964 609.976C462.211 609.601 462.256 609.12 462.099 608.534C462.022 608.246 461.914 608.004 461.775 607.81C461.636 607.615 461.472 607.456 461.284 607.332C461.099 607.218 460.893 607.133 460.666 607.078C460.45 607.029 460.221 607.004 459.978 607.001L460.099 605.882C460.402 605.897 460.705 605.946 461.008 606.029C461.322 606.119 461.614 606.253 461.884 606.432C462.157 606.62 462.401 606.864 462.616 607.164C462.834 607.472 463.005 607.857 463.128 608.317C463.251 608.776 463.294 609.205 463.255 609.601C463.216 609.998 463.108 610.351 462.93 610.66C462.752 610.968 462.513 611.23 462.213 611.446C461.916 611.671 461.564 611.837 461.158 611.946C460.789 612.045 460.432 612.083 460.087 612.059C459.745 612.045 459.406 611.986 459.069 611.883C458.741 611.777 458.407 611.63 458.066 611.441C457.728 611.261 457.384 611.059 457.034 610.834L454.067 608.904L455.397 613.867L454.396 614.135ZM455.599 619.271C455.297 618.144 455.504 617.205 456.22 616.452C456.939 615.709 458.069 615.131 459.611 614.717C461.153 614.304 462.42 614.24 463.415 614.524C464.411 614.818 465.06 615.528 465.362 616.655C465.664 617.782 465.456 618.717 464.737 619.46C464.021 620.213 462.892 620.795 461.35 621.209C459.809 621.622 458.539 621.681 457.543 621.388C456.549 621.104 455.901 620.398 455.599 619.271ZM456.586 619.007C456.685 619.376 456.846 619.671 457.069 619.892C457.293 620.112 457.566 620.266 457.889 620.353C458.212 620.441 458.572 620.47 458.97 620.44C459.371 620.42 459.801 620.348 460.261 620.225L461.802 619.812C462.262 619.689 462.67 619.536 463.027 619.353C463.386 619.18 463.684 618.974 463.92 618.737C464.156 618.5 464.316 618.23 464.399 617.928C464.482 617.625 464.474 617.289 464.375 616.919C464.276 616.55 464.115 616.255 463.892 616.034C463.668 615.814 463.395 615.66 463.072 615.573C462.749 615.485 462.388 615.452 461.987 615.472C461.589 615.502 461.16 615.578 460.701 615.701L459.159 616.114C458.699 616.237 458.29 616.386 457.93 616.559C457.573 616.742 457.277 616.952 457.041 617.189C456.805 617.426 456.645 617.696 456.562 617.998C456.479 618.301 456.487 618.637 456.586 619.007ZM458.112 628.003L467.551 625.474L467.856 626.61L459.418 628.871L460.494 632.887L459.493 633.155L458.112 628.003Z" fill="white"/>
<defs>
<clipPath id="clip0">
<rect width="16" height="16" fill="white" transform="translate(457.637 576) rotate(75)"/>
</clipPath>
</defs>
</svg>
